public/formular-icons/operators/Sum.svg

<svg style="vertical-align:-1.018ex" xmlns="http://www.w3.org/2000/svg" width="3.267ex" height="3.167ex" viewBox="0 -950 1444 1400" xmlns:xlink="http://www.w3.org/1999/xlink"><defs><path id="a" d="M60 948q3 2 605 2h602l58-135q59-138 63-146h-40l-7 14q-21 41-56 78-50 48-111 77t-141 43-151 17-183 4H251l8-11q463-633 465-639 1-2 0-6-3-3-264-302L196-356q0-1 211-1h141q89 0 128-1 136 0 220 5t167 21 141 49 103 87q21 26 41 72h40q0-1-7-21t-25-65-31-84l-58-155-601-1q-602 0-605 2-6 2-6 9 0 2 2 6l533 610q0 1-33 45T452 366 322 544L56 909l-1 15q0 21 5 24Z"/></defs><g stroke="currentColor" fill="currentColor" stroke-width="0"><use data-c="2211" xlink:href="#a" transform="scale(1 -1)"/></g></svg>

<svg style="vertical-align: -1.018ex" xmlns="http://www.w3.org/2000/svg" width="3.267ex" height="3.167ex" role="img" focusable="false" viewBox="0 -950 1444 1400" xmlns:xlink="http://www.w3.org/1999/xlink"><defs><path id="MJX-12-TEX-LO-2211" d="M60 948Q63 950 665 950H1267L1325 815Q1384 677 1388 669H1348L1341 683Q1320 724 1285 761Q1235 809 1174 838T1033 881T882 898T699 902H574H543H251L259 891Q722 258 724 252Q725 250 724 246Q721 243 460 -56L196 -356Q196 -357 407 -357Q459 -357 548 -357T676 -358Q812 -358 896 -353T1063 -332T1204 -283T1307 -196Q1328 -170 1348 -124H1388Q1388 -125 1381 -145T1356 -210T1325 -294L1267 -449L666 -450Q64 -450 61 -448Q55 -446 55 -439Q55 -437 57 -433L590 177Q590 178 557 222T452 366T322 544L56 909L55 924Q55 945 60 948Z"></path></defs><g stroke="currentColor" fill="currentColor" stroke-width="0" transform="scale(1,-1)"><g data-mml-node="math"><g data-mml-node="mo"><use data-c="2211" xlink:href="#MJX-12-TEX-LO-2211"></use></g></g></g></svg>
